X: 1
T: VESTRI'S -- HORNPIPE
B: Ryan's Mammoth Collection of Fiddle Tunes
R: hornpipe
M: C|
L: 1/8
Z: Contributed 20000522194343 by John Chambers jchambers:casc.com
K: D
vF>uG \
| A>FG>A B>cd>B | A>df>e d>cB>A | A>GG>F F>EE>D | E>DE>F E2F>G |
| A>FG>A B>cd>B | A>df>e d>cB>A | A>gb>g f>ed>c | d2f2d2 :|
|: ve>uf \
| g>fg>e A2c2 | d>Ad>e f2f2 | g>fg>e A2c2 | d>fe>d c>BA>G |
| A>FG>A B>cd>B | A>df>e d>cB>A | A>gf>e c>AB>c | d2f2d2 :|
